brandFactory_export/3.Masa/Documento_Archivo HTML_3Masa.svg

<?xml version="1.0" encoding="UTF-8"?>
<svg width="24px" height="24px" viewBox="0 0 24 24" version="1.1" xmlns="http://www.w3.org/2000/svg" xmlns:xlink="http://www.w3.org/1999/xlink">
    <title>3.Masa/Documento_Archivo HTML_3Masa</title>
    <g id="Symbols" stroke="none" stroke-width="1" fill="none" fill-rule="evenodd">
        <g id="3.Masa/Documento_Archivo-HTML_3Masa" fill="#5CB615" fill-rule="nonzero">
            <path d="M16.2117647,-2.66453526e-13 C16.487395,-2.66453526e-13 16.7462185,0.104201681 16.9445378,0.292436975 L23.3042017,6.45042017 C23.4386555,6.57815126 23.5159664,6.7394958 23.5663866,6.91092437 C23.6033613,6.99831933 23.6235294,7.09579832 23.6235294,7.19663866 L23.6235294,21.9630252 C23.6235294,22.8638655 22.8504202,23.6235294 21.9327731,23.6235294 L7.31764706,23.6235294 C6.41680672,23.6235294 5.62689076,22.8470588 5.62689076,21.9630252 L5.66722689,18.6386555 L2.90420168,18.6386555 C1.30084034,18.6352941 2.19149143e-10,17.3310924 2.19149143e-10,15.7277311 L2.19149143e-10,10.8168067 C2.19149143e-10,9.21008403 1.30084034,7.9092437 2.90420168,7.90588235 L5.62352941,7.90588235 L5.62352941,1.6605042 C5.62352941,0.789915966 6.4302521,-2.66453526e-13 7.31428571,-2.66453526e-13 L16.2117647,-2.66453526e-13 Z M15.4957983,9.36470588 L2.90420168,9.36470588 C2.10420168,9.36470588 1.45546219,10.0134454 1.45546219,10.8168067 L1.45546219,15.7277311 C1.45546219,16.5277311 2.10420168,17.1798319 2.90420168,17.1798319 L15.4957983,17.1798319 C16.2957983,17.1798319 16.9445378,16.5277311 16.9445378,15.7277311 L16.9445378,10.8168067 C16.9445378,10.0168067 16.2957983,9.36470588 15.4957983,9.36470588 Z M3.02857143,11.4621849 L3.02857143,12.9747899 L4.33613445,12.9747899 L4.33613445,11.4621849 L5.18319328,11.4621849 L5.18319328,15.1764706 L4.33613445,15.1764706 L4.33613445,13.6134454 L3.02857143,13.6134454 L3.02857143,15.1764706 L2.18151261,15.1764706 L2.18151261,11.4621849 L3.02857143,11.4621849 Z M9.95966387,11.4621849 L11.1327731,13.5361345 L12.3428571,11.4621849 L12.994958,11.4621849 L12.994958,15.1764706 L12.2184874,15.1764706 L12.2184874,13.0386555 L11.4487395,14.3294118 L10.7966387,14.3294118 L10.0033613,13.0151261 L10.0033613,15.1764706 L9.2907563,15.1764706 L9.2907563,11.4621849 L9.95966387,11.4621849 Z M14.6453782,11.4621849 L14.6453782,14.5613445 L16.2890756,14.5613445 L16.2890756,15.1764706 L13.7983193,15.1764706 L13.7983193,11.4621849 L14.6453782,11.4621849 Z M8.85042017,11.4621849 L8.78655462,12.0739496 L7.66386555,12.0739496 L7.66386555,15.1731092 L6.81680672,15.1731092 L6.81680672,12.0739496 L5.66386555,12.0739496 L5.66386555,11.4621849 L8.85042017,11.4621849 Z M16.6151261,2.00336134 L16.6151261,4.1210084 C16.6151261,4.91092437 16.8739496,5.57647059 17.3647059,6.05042017 C17.8621849,6.53109244 18.5613445,6.78319328 19.3915966,6.78319328 L21.5563025,6.78319328 L16.6151261,2.00336134 Z" id="Documento_Archivo-HTML_3Masa"></path>
        </g>
    </g>
</svg>

<svg width="24" height="24" viewBox="0 0 24 24" xmlns="http://www.w3.org/2000/svg"><path d="M16.212 0c.275 0 .534.104.733.292l6.36 6.158c.134.128.211.29.261.46a.735.735 0 01.058.287v14.766c0 .9-.774 1.66-1.691 1.66H7.318c-.901 0-1.691-.776-1.691-1.66l.04-3.324H2.904A2.913 2.913 0 010 15.728v-4.911a2.91 2.91 0 012.904-2.911h2.72V1.66C5.624.79 6.43 0 7.314 0h8.898zm-.716 9.365H2.904c-.8 0-1.449.648-1.449 1.452v4.91c0 .8.65 1.453 1.45 1.453h12.59c.8 0 1.45-.652 1.45-1.452v-4.911c0-.8-.65-1.452-1.45-1.452zM3.029 11.462v1.513h1.307v-1.513h.847v3.714h-.847v-1.563H3.03v1.563h-.847v-3.714h.847zm6.93 0l1.174 2.074 1.21-2.074h.652v3.714h-.777V13.04l-.77 1.29h-.651l-.794-1.314v2.161h-.712v-3.714h.669zm4.686 0v3.1h1.644v.614H13.8v-3.714h.846zm-5.795 0l-.063.612H7.664v3.1h-.847v-3.1H5.664v-.612H8.85zm7.765-9.459v2.118c0 .79.259 1.455.75 1.93.497.48 1.196.732 2.027.732h2.164l-4.94-4.78z" fill="#5CB615" fill-rule="nonzero"/></svg>
